plasma/desktoptheme/Materia-Color/icons/preferences.svg

<svg xmlns="http://www.w3.org/2000/svg" width="32" height="32" version="1.1">
 <defs id="materia">
  <style id="current-color-scheme" type="text/css">
   .ColorScheme-Background {color:#181818; } .ColorScheme-ButtonBackground { color:#343434; } .ColorScheme-Highlight { color:#4285f4; } .ColorScheme-Text { color:#dfdfdf; } .ColorScheme-ViewBackground { color:#242424; } .ColorScheme-NegativeText { color:#f44336; } .ColorScheme-PositiveText { color:#4caf50; } .ColorScheme-NeutralText { color:#ff9800; }
  </style>
 </defs>
 <g id="22-22-preferences-desktop-notification" transform="translate(32,-62)">
  <rect style="opacity:0.001" width="22" height="22" x="0" y="40"/>
  <path style="fill:currentColor" class="ColorScheme-Highlight" d="m 11,43 c -4.418278,0 -8,3.581722 -8,8 0,4.418278 3.581722,8 8,8 4.418278,0 8,-3.581722 8,-8 0,-4.418278 -3.581722,-8 -8,-8 z"/>
  <path style="fill:#ffffff" d="m 10,47 v 6 h 2 v -6 z m 1,7 c -0.453152,0 -1,0.518427 -1,0.980469 C 10,55.442512 10.546848,56 11,56 11.453152,56 12,55.442512 12,54.980469 12,54.518427 11.453152,54 11,54 Z"/>
 </g>
 <g id="22-22-preferences-desktop-display-randr" transform="translate(0,-22)">
  <rect style="opacity:0.001" width="22" height="22" x="0" y="0"/>
  <path style="fill:currentColor" class="ColorScheme-Text" d="M 3.125,2.9999998 C 2,2.9999998 2,4.1431759 2,4.1431759 V 15.874512 c 0,1.143176 1.125,1.143176 1.125,1.143176 h 5.0375 c 0,0 -1.2001266,-0.298955 -1.1625,0.843601 V 19 h 8 v -1.138711 c 0,-1.143176 -1.050415,-0.843601 -1.050415,-0.843601 H 18.875 C 20,17.017688 20,15.874512 20,15.874512 V 4.1431759 c 0,0 0,-1.1431761 -1.125,-1.1431761 z M 4,5 h 14 v 9.98549 L 4,15.01451 Z"/>
 </g>
 <g id="22-22-preferences-system-windows" transform="translate(59,-27)">
  <rect style="opacity:0.001" width="22" height="22" x="5" y="5"/>
  <path style="fill:currentColor" class="ColorScheme-Text" d="M 13.5,9 C 13,9 13,9.5 13,9.5 v 8 c 0,0.5 0.5,0.5 0.5,0.5 h 10 c 0,0 0.5,0 0.5,-0.5 v -8 C 24,9 23.5,9 23.5,9 Z m 1.5,3 h 7 v 4 H 15 Z M 7.519531,14 C 7.519531,14 7,14 7,14.5 v 8 C 7,23 7.5,23 7.5,23 h 10 c 0,0 0.5,-0.02 0.5,-0.5 V 19 h -2 v 2 H 9 v -4 h 3 v -3 z"/>
 </g>
 <g id="preferences-desktop-display-randr" transform="translate(0,34)">
  <rect style="opacity:0.001" width="32" height="32" x="0" y="-34"/>
  <g transform="translate(2e-4,-35)">
   <path style="fill:currentColor" class="ColorScheme-Text" transform="translate(0,1)" d="M 4.3007812,4 C 3.5805813,4 3,4.5575 3,5.25 v 17.5 C 3,23.4425 3.5805813,24 4.3007812,24 H 8 v 1.6875 C 8,26.414902 8.5935493,27 9.3320312,27 H 22.667969 C 23.406451,27 24,26.414902 24,25.6875 V 24 h 3.699219 C 28.419419,24 29,23.4425 29,22.75 V 5.25 C 29,4.5575 28.419419,4 27.699219,4 Z M 6,7 H 26 V 21 H 24 8 6 Z"/>
  </g>
 </g>
 <g id="preferences-desktop-notification" transform="translate(32)">
  <rect style="opacity:0.001" width="32" height="32" x="0" y="0"/>
  <path style="fill:currentColor" class="ColorScheme-Highlight" d="M 15.5,4 A 11.5,11.5 0 0 0 4,15.5 11.5,11.5 0 0 0 15.5,27 11.5,11.5 0 0 0 27,15.5 11.5,11.5 0 0 0 15.5,4 Z"/>
  <path style="fill:#ffffff" transform="translate(-160)" d="m 174,9 v 8 h 3 V 9 Z m 1.5,10 C 174.82027,19 174,19.77764 174,20.470703 174,21.163769 174.82027,22 175.5,22 176.17973,22 177,21.163769 177,20.470703 177,19.77764 176.17973,19 175.5,19 Z"/>
 </g>
 <g id="preferences-system-windows" transform="translate(64)">
  <rect style="opacity:0.001" width="32" height="32" x="0" y="0"/>
  <path style="fill:currentColor" class="ColorScheme-Text" d="M 12.726562,6 C 11.999289,6 12,6.7226564 12,6.7226562 V 18.277344 C 12,18.999566 12.726563,19 12.726562,19 H 27.273438 C 27.273438,19 28,18.999566 28,18.277344 V 6.7226562 C 28,6.0004339 27.273438,6 27.273438,6 Z M 15,10 h 10 v 6 H 15 Z M 3.7265625,13 C 2.9992895,13 3,13.722656 3,13.722656 V 25.277344 C 3,25.999566 3.7265625,26 3.7265625,26 H 18.273438 C 18.273438,26 19,25.999566 19,25.277344 V 21 h -3 v 2 H 6 v -6 h 4 v -4 z"/>
 </g>
 <g id="preferences-desktop-notification-bell" transform="translate(-22,32)">
  <rect style="opacity:0.001" width="22" height="22" x="0" y="0"/>
  <path style="fill:currentColor" class="ColorScheme-Text" d="M 11,3.0000001 C 11.55,3.0000001 12,3.4500001 12,4.0000001 12,4.0300001 12,4.0700001 11.99,4.1000001 14.28,4.5600001 16,6.5700001 16,9.0000001 V 11 13.5 L 18,15.5 V 16 H 16 6 4 V 15.5 L 6,13.5 V 9.0000001 C 6,6.5700001 7.72,4.5600001 10.01,4.1000001 10,4.0700001 10,4.0300001 10,4.0000001 10,3.4500001 10.45,3.0000001 11,3.0000001 Z M 12.73,17 C 12.37,17.62 11.71,18 11,18 10.29,18 9.63,17.62 9.27,17 Z"/>
 </g>
 <g id="22-22-preferences-system-bluetooth" transform="translate(-64)">
  <rect style="opacity:0.001" width="22" height="22" x="192" y="-22"/>
  <path style="fill:currentColor" class="ColorScheme-Text" d="m 201.56552,-18.900774 a 1.0001,1.0001 0 0 0 -0.5664,0.900391 v 4.066406 l -2.38672,-1.855468 a 1,1 0 0 0 -1.40235,0.175781 1,1 0 0 0 0.17579,1.402344 l 3.61328,2.810546 v 0.800782 l -3.61328,2.8105474 a 1,1 0 0 0 -0.17579,1.402343 1,1 0 0 0 1.40235,0.175782 l 2.38672,-1.855469 v 4.066406 a 1.0001,1.0001 0 0 0 1.625,0.78125 l 5,-4 a 1.0001,1.0001 0 0 0 -0.0117,-1.570312 l -2.8418,-2.2109384 2.8418,-2.210937 a 1.0001,1.0001 0 0 0 0.0117,-1.570313 l -5,-4 a 1.0001,1.0001 0 0 0 -1.0586,-0.119141 z m 1.4336,2.982422 2.38476,1.908203 -2.24219,1.744141 -0.14257,-0.111328 z m 0.14257,6.1835944 2.24219,1.744141 -2.38476,1.908203 v -3.541016 z"/>
 </g>
 <g id="22-22-preferences-system-bluetooth-activated" transform="translate(-128)">
  <rect style="opacity:0.001" width="22" height="22" x="224" y="-22"/>
  <path style="fill:currentColor" class="ColorScheme-Text" d="m 233.92578,-18.998047 a 1.0001,1.0001 0 0 0 -0.35937,0.09766 A 1.0001,1.0001 0 0 0 233,-18 v 4.066406 l -2.38672,-1.855468 a 1,1 0 0 0 -1.40234,0.175781 1,1 0 0 0 0.17578,1.402343 L 233,-11.400391 v 0.800782 l -3.61328,2.8105465 a 1,1 0 0 0 -0.17578,1.4023437 1,1 0 0 0 1.40234,0.1757813 L 233,-8.0664062 V -4 a 1.0001,1.0001 0 0 0 1.625,0.78125 l 5,-4 a 1.0001,1.0001 0 0 0 -0.0117,-1.5703125 L 236.77148,-11 l 2.8418,-2.210938 a 1.0001,1.0001 0 0 0 0.0117,-1.570312 l -5,-4 a 1.0001,1.0001 0 0 0 -0.69922,-0.216797 z m 1.07422,3.080078 2.38477,1.908203 -2.24219,1.744141 L 235,-12.376953 Z M 229,-12 a 1,1 0 0 0 -1,1 1,1 0 0 0 1,1 1,1 0 0 0 1,-1 1,1 0 0 0 -1,-1 z m 12,0 a 1,1 0 0 0 -1,1 1,1 0 0 0 1,1 1,1 0 0 0 1,-1 1,1 0 0 0 -1,-1 z m -5.85742,2.265625 2.24219,1.7441406 L 235,-6.0820312 v -3.5410157 z"/>
 </g>
 <g id="preferences-system-bluetooth" transform="translate(-64)">
  <rect style="opacity:0.001" width="32" height="32" x="192" y="0"/>
  <path style="fill:currentColor" class="ColorScheme-Text" d="m 205.83008,4.1578176 a 1.5002601,1.5002143 0 0 0 -0.83014,1.341854 V 11.87104 l -3.62917,-2.5919094 a 1.5001101,1.5000643 0 0 0 -2.09195,0.349624 1.5001101,1.5000643 0 0 0 0.34963,2.0918874 l 5.37149,3.836102 V 16.4435 l -5.37149,3.836102 a 1.5001101,1.5000643 0 0 0 -0.34963,2.091887 1.5001101,1.5000643 0 0 0 2.09195,0.349624 l 3.62917,-2.591908 v 6.371367 a 1.5002601,1.5002143 0 0 0 2.40057,1.19927 l 8.00058,-6.000256 a 1.5002601,1.5002143 0 0 0 -0.0293,-2.420027 l -4.59213,-3.279437 4.59214,-3.279438 a 1.5002601,1.5002143 0 0 0 0.0293,-2.420025 l -8.00059,-6.0002574 a 1.5002601,1.5002143 0 0 0 -1.57043,-0.142584 z m 2.17008,4.341983 3.96123,2.9708304 -3.762,2.685662 -0.19923,-0.142584 z m 0.19923,9.3441504 3.762,2.685663 -3.96123,2.97083 v -5.513909 z"/>
 </g>
 <g id="preferences-system-bluetooth-activated" transform="translate(-128)">
  <rect style="opacity:0.001" width="32" height="32" x="224" y="0"/>
  <path style="fill:currentColor" class="ColorScheme-Text" d="M 238.35938,4.0058594 A 1.5002601,1.5002143 0 0 0 237.83008,4.1582031 1.5002601,1.5002143 0 0 0 237,5.5 v 6.371094 l -3.62891,-2.5917971 a 1.5001101,1.5000643 0 0 0 -2.09179,0.3496093 1.5001101,1.5000643 0 0 0 0.34961,2.0917968 L 237,15.556641 v 0.886718 l -5.37109,3.835938 a 1.5001101,1.5000643 0 0 0 -0.34961,2.091797 1.5001101,1.5000643 0 0 0 2.09179,0.349609 L 237,20.128906 V 26.5 a 1.5002601,1.5002143 0 0 0 2.40039,1.199219 l 8,-6 a 1.5002601,1.5002143 0 0 0 -0.0293,-2.419922 L 242.7793,16 l 4.59179,-3.279297 a 1.5002601,1.5002143 0 0 0 0.0293,-2.419922 l -8,-5.9999998 A 1.5002601,1.5002143 0 0 0 238.35938,4.0058594 Z M 240,8.5 243.96094,11.470703 240.19922,14.15625 240,14.013672 Z M 230,14 a 2,2 0 0 0 -2,2 2,2 0 0 0 2,2 2,2 0 0 0 2,-2 2,2 0 0 0 -2,-2 z m 20,0 a 2,2 0 0 0 -2,2 2,2 0 0 0 2,2 2,2 0 0 0 2,-2 2,2 0 0 0 -2,-2 z m -9.80078,3.84375 3.76172,2.685547 L 240,23.5 v -5.513672 z"/>
 </g>
 <g id="22-22-preferences-system-bluetooth-inactive">
  <rect style="opacity:0.001" width="22" height="22" x="160" y="-22"/>
  <path style="opacity:0.35;fill:currentColor" class="ColorScheme-Text" d="m 169.92578,-18.997228 c -0.12473,0.0092 -0.24662,0.04052 -0.35938,0.09461 -0.34599,0.166512 -0.56611,0.516414 -0.5664,0.900391 v 2.029297 l 2,1.558594 v -1.50586 l 2.38476,1.908203 -0.93555,0.728516 1.62696,1.267578 1.53711,-1.197266 c 0.51053,-0.396616 0.51627,-1.16612 0.0117,-1.570312 l -5,-4 c -0.19759,-0.157339 -0.44738,-0.232998 -0.69922,-0.21375 z m -4.69336,2.118047 -1.23242,1.576172 5,3.90039 v 0.800782 l -3.61329,2.8105464 c -0.43545,0.338893 -0.51412,0.966456 -0.17578,1.402343 0.3389,0.435458 0.96646,0.514122 1.40235,0.175781 L 169,-8.0686346 v 4.066406 c -3.5e-4,0.838869 0.97004,1.305407 1.625,0.78125 l 4.38085,-3.503906 1.76172,1.373047 L 178,-6.9280096 Z m 5.91015,7.1425774 2.24024,1.746094 -2.38281,1.90625 v -3.541016 z"/>
 </g>
 <g id="preferences-system-bluetooth-inactive" transform="translate(-32)">
  <rect style="opacity:0.001" width="32" height="32" x="192" y="0"/>
  <path style="opacity:0.35;fill:currentColor" class="ColorScheme-Text" d="m 206.35938,4.0058594 c -0.18432,0.017683 -0.36378,0.069334 -0.5293,0.1523437 C 205.32153,4.4121104 205.00016,4.9316051 205,5.5 v 3.2890625 l 3,2.1308595 V 8.5 l 3.96094,2.970703 -1.58985,1.134766 2.58789,1.83789 2.41211,-1.722656 c 0.8251,-0.589451 0.83989,-1.810668 0.0293,-2.419922 l -8,-5.9999998 c -0.29824,-0.2243658 -0.6694,-0.3295173 -1.04101,-0.2949218 z m -6.10743,5.015625 c -0.39187,0.065675 -0.74167,0.2841291 -0.97265,0.6074218 -0.48086,0.6742298 -0.32437,1.6105678 0.34961,2.0917968 L 205,15.556641 v 0.886718 l -5.37109,3.835938 c -0.67398,0.481229 -0.83047,1.417567 -0.34961,2.091797 0.48124,0.673916 1.41755,0.830406 2.09179,0.349609 L 205,20.128906 V 26.5 c 8e-4,1.235782 1.41172,1.940667 2.40039,1.199219 l 8,-6 c 0.81059,-0.609254 0.7958,-1.830471 -0.0293,-2.419922 l -14,-10.0000001 c -0.32408,-0.2309825 -0.72666,-0.3237246 -1.11914,-0.2578125 z m 7.94727,8.8222656 3.76172,2.685547 L 208,23.5 v -5.513672 z"/>
 </g>
</svg>

<?xml version="1.0" encoding="UTF-8"?>
<svg width="32" height="32" version="1.1" xmlns="http://www.w3.org/2000/svg">
 <defs id="materia">
  <style id="current-color-scheme" type="text/css">.ColorScheme-Background {color:#181818; } .ColorScheme-ButtonBackground { color:#343434; } .ColorScheme-Highlight { color:#4285f4; } .ColorScheme-Text { color:#dfdfdf; } .ColorScheme-ViewBackground { color:#242424; } .ColorScheme-NegativeText { color:#f44336; } .ColorScheme-PositiveText { color:#4caf50; } .ColorScheme-NeutralText { color:#ff9800; }</style>
 </defs>
 <g id="22-22-preferences-desktop-notification" transform="translate(32,-62)">
  <rect y="40" width="22" height="22" opacity=".001"/>
  <path class="ColorScheme-Highlight" d="m11 43c-4.4183 0-8 3.5817-8 8s3.5817 8 8 8 8-3.5817 8-8-3.5817-8-8-8z" fill="currentColor"/>
  <path d="m10 47v6h2v-6zm1 7c-0.45315 0-1 0.51843-1 0.98047 0 0.46204 0.54685 1.0195 1 1.0195s1-0.55749 1-1.0195c0-0.46204-0.54685-0.98047-1-0.98047z" fill="#fff"/>
 </g>
 <g id="22-22-preferences-desktop-display-randr" transform="translate(0,-22)">
  <rect width="22" height="22" opacity=".001"/>
  <path class="ColorScheme-Text" d="m3.125 3c-1.125 0-1.125 1.1432-1.125 1.1432v11.731c0 1.1432 1.125 1.1432 1.125 1.1432h5.0375s-1.2001-0.29896-1.1625 0.8436v1.1387h8v-1.1387c0-1.1432-1.0504-0.8436-1.0504-0.8436h4.9254c1.125 0 1.125-1.1432 1.125-1.1432v-11.731s0-1.1432-1.125-1.1432zm0.875 2h14v9.9855l-14 0.02902z" fill="currentColor"/>
 </g>
 <g id="22-22-preferences-system-windows" transform="translate(59,-27)">
  <rect x="5" y="5" width="22" height="22" opacity=".001"/>
  <path class="ColorScheme-Text" d="m13.5 9c-0.5 0-0.5 0.5-0.5 0.5v8c0 0.5 0.5 0.5 0.5 0.5h10s0.5 0 0.5-0.5v-8c0-0.5-0.5-0.5-0.5-0.5zm1.5 3h7v4h-7zm-7.4805 2s-0.51953 0-0.51953 0.5v8c0 0.5 0.5 0.5 0.5 0.5h10s0.5-0.02 0.5-0.5v-3.5h-2v2h-7v-4h3v-3z" fill="currentColor"/>
 </g>
 <g id="preferences-desktop-display-randr" transform="translate(0,34)">
  <rect y="-34" width="32" height="32" opacity=".001"/>
  <g transform="translate(2e-4,-35)">
   <path class="ColorScheme-Text" transform="translate(0,1)" d="m4.3008 4c-0.7202 0-1.3008 0.5575-1.3008 1.25v17.5c0 0.6925 0.58058 1.25 1.3008 1.25h3.6992v1.6875c0 0.7274 0.59355 1.3125 1.332 1.3125h13.336c0.73848 0 1.332-0.5851 1.332-1.3125v-1.6875h3.6992c0.7202 0 1.3008-0.5575 1.3008-1.25v-17.5c0-0.6925-0.58058-1.25-1.3008-1.25zm1.6992 3h20v14h-20z" fill="currentColor"/>
  </g>
 </g>
 <g id="preferences-desktop-notification" transform="translate(32)">
  <rect width="32" height="32" opacity=".001"/>
  <path class="ColorScheme-Highlight" d="M 15.5,4 A 11.5,11.5 0 0 0 4,15.5 11.5,11.5 0 0 0 15.5,27 11.5,11.5 0 0 0 27,15.5 11.5,11.5 0 0 0 15.5,4 Z" fill="currentColor"/>
  <path transform="translate(-160)" d="m174 9v8h3v-8zm1.5 10c-0.67973 0-1.5 0.77764-1.5 1.4707 0 0.69307 0.82027 1.5293 1.5 1.5293s1.5-0.83623 1.5-1.5293c0-0.69306-0.82027-1.4707-1.5-1.4707z" fill="#fff"/>
 </g>
 <g id="preferences-system-windows" transform="translate(64)">
  <rect width="32" height="32" opacity=".001"/>
  <path class="ColorScheme-Text" d="m12.727 6c-0.72727 0-0.72656 0.72266-0.72656 0.72266v11.555c0 0.72222 0.72656 0.72266 0.72656 0.72266h14.547s0.72656-4.34e-4 0.72656-0.72266v-11.555c0-0.72222-0.72656-0.72266-0.72656-0.72266zm2.2734 4h10v6h-10zm-11.273 3c-0.72727 0-0.72656 0.72266-0.72656 0.72266v11.555c0 0.72222 0.72656 0.72266 0.72656 0.72266h14.547s0.72656-4.34e-4 0.72656-0.72266v-4.2773h-3v2h-10v-6h4v-4z" fill="currentColor"/>
 </g>
 <g id="preferences-desktop-notification-bell" transform="translate(-22,32)">
  <rect width="22" height="22" opacity=".001"/>
  <path class="ColorScheme-Text" d="m11 3c0.55 0 1 0.45 1 1 0 0.03 0 0.07-0.01 0.1 2.29 0.46 4.01 2.47 4.01 4.9v4.5l2 2v0.5h-14v-0.5l2-2v-4.5c0-2.43 1.72-4.44 4.01-4.9-0.01-0.03-0.01-0.07-0.01-0.1 0-0.55 0.45-1 1-1zm1.73 14c-0.36 0.62-1.02 1-1.73 1s-1.37-0.38-1.73-1z" fill="currentColor"/>
 </g>
 <g id="22-22-preferences-system-bluetooth" transform="translate(-64)">
  <rect x="192" y="-22" width="22" height="22" opacity=".001"/>
  <path class="ColorScheme-Text" d="m201.57-18.901a1.0001 1.0001 0 0 0-0.5664 0.90039v4.0664l-2.3867-1.8555a1 1 0 0 0-1.4024 0.17578 1 1 0 0 0 0.17579 1.4023l3.6133 2.8105v0.80078l-3.6133 2.8105a1 1 0 0 0-0.17579 1.4023 1 1 0 0 0 1.4024 0.17578l2.3867-1.8555v4.0664a1.0001 1.0001 0 0 0 1.625 0.78125l5-4a1.0001 1.0001 0 0 0-0.0117-1.5703l-2.8418-2.2109 2.8418-2.2109a1.0001 1.0001 0 0 0 0.0117-1.5703l-5-4a1.0001 1.0001 0 0 0-1.0586-0.11914zm1.4336 2.9824 2.3848 1.9082-2.2422 1.7441-0.14257-0.11133zm0.14257 6.1836 2.2422 1.7441-2.3848 1.9082v-3.541z" fill="currentColor"/>
 </g>
 <g id="22-22-preferences-system-bluetooth-activated" transform="translate(-128)">
  <rect x="224" y="-22" width="22" height="22" opacity=".001"/>
  <path class="ColorScheme-Text" d="m233.93-18.998a1.0001 1.0001 0 0 0-0.35937 0.09766 1.0001 1.0001 0 0 0-0.56641 0.90039v4.0664l-2.3867-1.8555a1 1 0 0 0-1.4023 0.17578 1 1 0 0 0 0.17578 1.4023l3.6133 2.8105v0.80078l-3.6133 2.8105a1 1 0 0 0-0.17578 1.4023 1 1 0 0 0 1.4023 0.17578l2.3867-1.8555v4.0664a1.0001 1.0001 0 0 0 1.625 0.78125l5-4a1.0001 1.0001 0 0 0-0.0117-1.5703l-2.8418-2.2109 2.8418-2.2109a1.0001 1.0001 0 0 0 0.0117-1.5703l-5-4a1.0001 1.0001 0 0 0-0.69922-0.2168zm1.0742 3.0801 2.3848 1.9082-2.2422 1.7441-0.14258-0.11133zm-6 3.918a1 1 0 0 0-1 1 1 1 0 0 0 1 1 1 1 0 0 0 1-1 1 1 0 0 0-1-1zm12 0a1 1 0 0 0-1 1 1 1 0 0 0 1 1 1 1 0 0 0 1-1 1 1 0 0 0-1-1zm-5.8574 2.2656 2.2422 1.7441-2.3848 1.9082v-3.541z" fill="currentColor"/>
 </g>
 <g id="preferences-system-bluetooth" transform="translate(-64)">
  <rect x="192" width="32" height="32" opacity=".001"/>
  <path class="ColorScheme-Text" d="m205.83 4.1578a1.5003 1.5002 0 0 0-0.83014 1.3419v6.3714l-3.6292-2.5919a1.5001 1.5001 0 0 0-2.092 0.34962 1.5001 1.5001 0 0 0 0.34963 2.0919l5.3715 3.8361v0.88676l-5.3715 3.8361a1.5001 1.5001 0 0 0-0.34963 2.0919 1.5001 1.5001 0 0 0 2.092 0.34962l3.6292-2.5919v6.3714a1.5003 1.5002 0 0 0 2.4006 1.1993l8.0006-6.0003a1.5003 1.5002 0 0 0-0.0293-2.42l-4.5921-3.2794 4.5921-3.2794a1.5003 1.5002 0 0 0 0.0293-2.42l-8.0006-6.0003a1.5003 1.5002 0 0 0-1.5704-0.14258zm2.1701 4.342 3.9612 2.9708-3.762 2.6857-0.19923-0.14258zm0.19923 9.3442 3.762 2.6857-3.9612 2.9708v-5.5139z" fill="currentColor"/>
 </g>
 <g id="preferences-system-bluetooth-activated" transform="translate(-128)">
  <rect x="224" width="32" height="32" opacity=".001"/>
  <path class="ColorScheme-Text" d="m238.36 4.0059a1.5003 1.5002 0 0 0-0.5293 0.15234 1.5003 1.5002 0 0 0-0.83008 1.3418v6.3711l-3.6289-2.5918a1.5001 1.5001 0 0 0-2.0918 0.34961 1.5001 1.5001 0 0 0 0.34961 2.0918l5.3711 3.8359v0.88672l-5.3711 3.8359a1.5001 1.5001 0 0 0-0.34961 2.0918 1.5001 1.5001 0 0 0 2.0918 0.34961l3.6289-2.5918v6.3711a1.5003 1.5002 0 0 0 2.4004 1.1992l8-6a1.5003 1.5002 0 0 0-0.0293-2.4199l-4.5918-3.2793 4.5918-3.2793a1.5003 1.5002 0 0 0 0.0293-2.4199l-8-6a1.5003 1.5002 0 0 0-1.041-0.29492zm1.6406 4.4941 3.9609 2.9707-3.7617 2.6855-0.19922-0.14258zm-10 5.5a2 2 0 0 0-2 2 2 2 0 0 0 2 2 2 2 0 0 0 2-2 2 2 0 0 0-2-2zm20 0a2 2 0 0 0-2 2 2 2 0 0 0 2 2 2 2 0 0 0 2-2 2 2 0 0 0-2-2zm-9.8008 3.8438 3.7617 2.6855-3.9609 2.9707v-5.5137z" fill="currentColor"/>
 </g>
 <g id="22-22-preferences-system-bluetooth-inactive">
  <rect x="160" y="-22" width="22" height="22" opacity=".001"/>
  <path class="ColorScheme-Text" d="m169.93-18.997c-0.12473 0.0092-0.24662 0.04052-0.35938 0.09461-0.34599 0.16651-0.56611 0.51641-0.5664 0.90039v2.0293l2 1.5586v-1.5059l2.3848 1.9082-0.93555 0.72852 1.627 1.2676 1.5371-1.1973c0.51053-0.39662 0.51627-1.1661 0.0117-1.5703l-5-4c-0.19759-0.15734-0.44738-0.233-0.69922-0.21375zm-4.6934 2.118-1.2324 1.5762 5 3.9004v0.80078l-3.6133 2.8105c-0.43545 0.33889-0.51412 0.96646-0.17578 1.4023 0.3389 0.43546 0.96646 0.51412 1.4024 0.17578l2.3867-1.8555v4.0664c-3.5e-4 0.83887 0.97004 1.3054 1.625 0.78125l4.3808-3.5039 1.7617 1.373 1.2324-1.5762zm5.9102 7.1426 2.2402 1.7461-2.3828 1.9062v-3.541z" fill="currentColor" opacity=".35"/>
 </g>
 <g id="preferences-system-bluetooth-inactive" transform="translate(-32)">
  <rect x="192" width="32" height="32" opacity=".001"/>
  <path class="ColorScheme-Text" d="m206.36 4.0059c-0.18432 0.017683-0.36378 0.069334-0.5293 0.15234-0.50855 0.25391-0.82992 0.7734-0.83008 1.3418v3.2891l3 2.1309v-2.4199l3.9609 2.9707-1.5898 1.1348 2.5879 1.8379 2.4121-1.7227c0.8251-0.58945 0.83989-1.8107 0.0293-2.4199l-8-6c-0.29824-0.22437-0.6694-0.32952-1.041-0.29492zm-6.1074 5.0156c-0.39187 0.065675-0.74167 0.28413-0.97265 0.60742-0.48086 0.67423-0.32437 1.6106 0.34961 2.0918l5.3711 3.8359v0.88672l-5.3711 3.8359c-0.67398 0.48123-0.83047 1.4176-0.34961 2.0918 0.48124 0.67392 1.4176 0.83041 2.0918 0.34961l3.6289-2.5918v6.3711c8e-4 1.2358 1.4117 1.9407 2.4004 1.1992l8-6c0.81059-0.60925 0.7958-1.8305-0.0293-2.4199l-14-10c-0.32408-0.23098-0.72666-0.32372-1.1191-0.25781zm7.9473 8.8223 3.7617 2.6855-3.9609 2.9707v-5.5137z" fill="currentColor" opacity=".35"/>
 </g>
</svg>
